src/assets/img/apiIcon.svg

<svg width="57" height="60" viewBox="0 0 57 60" fill="none" xmlns="http://www.w3.org/2000/svg">
<path d="M21.0703 54.8917C17.027 53.7545 13.471 51.6607 10.3663 48.7365C9.39161 49.0794 8.39883 49.4224 7.388 49.7473C6.91869 49.8917 6.44937 49.8375 5.96201 49.657C5.09558 49.3321 4.57212 48.7004 4.19306 47.9242C3.66959 46.8953 3.00172 45.9567 2.47826 44.9278C2.00894 43.9711 1.32302 43.1408 0.925908 42.148C0.727352 41.6607 0.203887 41.3357 0.203887 40.722C-0.265427 39.9639 0.185836 39.296 0.456594 38.6282C0.528796 38.4477 0.619049 38.213 0.781504 38.1408C1.43132 37.852 1.75623 37.2022 2.29775 36.8051C2.55046 36.6245 2.82122 36.426 3.11002 36.2094C2.69486 34.1336 2.33385 32.0578 2.33385 29.9278C2.33385 27.8159 2.71291 25.7762 3.11002 23.7545C2.40605 23.1047 1.75623 22.4729 1.07031 21.8773C0.366342 21.2635 -0.0488209 20.5054 0.0414318 19.7112C0.0955835 19.278 0.221937 18.8087 0.438544 18.4477C1.10641 17.3827 1.72013 16.2635 2.36995 15.1805C2.89342 14.3141 3.34468 13.4116 3.9223 12.5632C4.22916 12.13 4.40966 11.6245 4.71652 11.1733C5.31219 10.3249 6.50353 9.90975 7.47826 10.1986C8.34468 10.4513 9.15696 10.8303 10.0414 10.9928C10.1317 11.0108 10.2039 11.1372 10.2941 11.2274C13.4169 8.3213 16.9728 6.24549 21.0523 5.0361C21.2147 4.54874 21.2508 4.02527 21.4494 3.51986C21.5938 3.14079 21.5577 2.67148 21.6299 2.25632C21.8284 1.17329 22.4963 0.541516 23.453 0.216606C23.7959 0.108303 24.1389 0 24.5541 0C27.0811 0.0361011 29.6082 0.0361011 32.1353 0C32.8573 0 33.471 0.288809 34.0487 0.613718C34.5721 0.884477 34.8609 1.46209 35.0053 2.00361C35.258 2.99639 35.4024 4.00722 35.601 5.05415C39.6624 6.20939 43.2183 8.2852 46.323 11.2094C47.2978 10.8664 48.2905 10.5235 49.3014 10.1986C49.7707 10.0542 50.24 10.1083 50.7274 10.2888C51.5938 10.6137 52.1172 11.2455 52.4963 12.0217C53.0198 13.0505 53.6876 13.9892 54.2111 15.0181C54.6804 15.9747 55.3663 16.8051 55.7635 17.7978C55.962 18.2852 56.4855 18.6101 56.4855 19.2238C56.9548 19.982 56.5035 20.6498 56.2328 21.3177C56.1606 21.4982 56.0703 21.7329 55.9079 21.8051C55.258 22.0939 54.9331 22.7437 54.3916 23.1408C54.1389 23.3213 53.8681 23.5199 53.5793 23.7365C53.9945 25.8123 54.3555 27.8881 54.3555 30.018C54.3555 32.13 54.0306 34.1697 53.5793 36.1913C54.2833 36.8412 54.9331 37.4729 55.6191 38.0686C56.323 38.6823 56.7382 39.4404 56.6479 40.2347C56.5938 40.6679 56.4855 41.1372 56.2508 41.4982C55.601 42.5451 54.9873 43.6282 54.3555 44.6931C53.5613 46.0108 52.9115 47.4368 51.9909 48.6823C51.8284 49.3682 51.1786 49.4224 50.7093 49.6751C50.2039 49.9458 49.6985 49.8736 49.1389 49.7112C48.3086 49.4765 47.5144 49.0614 46.6479 48.9531C46.5577 48.935 46.4855 48.8087 46.3952 48.7184C43.2725 51.6607 39.7346 53.7545 35.601 54.9278C35.4024 55.9025 35.2219 56.9134 35.0053 57.9061C34.7887 58.8809 34.1389 59.4946 33.2183 59.7834C32.8754 59.8917 32.5144 60 32.1172 60C29.5902 59.9639 27.0631 59.9639 24.536 60C23.814 60 23.2003 59.7112 22.6227 59.3863C22.0992 59.1155 21.7923 58.5379 21.684 57.9964C21.4855 56.9314 21.2869 55.9386 21.0703 54.8917ZM22.2436 38.9892C22.6046 38.7906 23.0198 38.6643 23.0378 38.231C23.0739 37.5812 23.1642 36.9134 23.0198 36.2996C22.7671 35.2527 22.3158 34.2419 22.045 33.1949C21.8645 32.5271 21.4674 31.8953 21.4855 31.1733C20.9079 29.7473 20.5468 28.2491 20.0595 26.8051C19.6624 25.6137 19.3736 24.3863 18.9403 23.213C18.7057 22.5632 18.6515 21.8412 18.2183 21.2635C18.1822 21.2094 18.1642 21.1733 18.1642 21.1733C17.6768 20.8484 17.1714 20.9567 16.7382 20.9567C16.4855 21.1913 16.2689 21.3899 16.0703 21.5704C16.0523 22.148 15.6371 22.5993 15.7093 23.1588C15.0775 24.5668 14.8068 26.083 14.2833 27.5271C14.0126 28.2671 13.8501 29.0253 13.6335 29.7834C13.4349 30.5415 13.0017 31.2274 13.0017 32.0397C12.3158 33.574 11.9728 35.2166 11.4674 36.8231C11.3411 37.2202 11.2689 37.5993 11.5216 37.9783C11.5938 38.0866 11.5577 38.2491 11.5577 38.231C11.8465 38.5379 12.0631 38.7545 12.2436 38.9711C12.5866 38.9711 12.9476 38.9711 13.3266 38.9711C13.5793 38.6462 13.832 38.3394 14.0667 38.0325C14.0126 37.0036 14.2292 36.3177 14.6985 35.2166C16.4674 35.2166 18.2364 35.2166 20.0053 35.2166C20.1497 35.7942 20.2219 36.3538 20.4205 36.8773C20.5107 37.0939 20.601 37.3105 20.5649 37.5271C20.5107 38.1949 20.7274 38.7184 21.4855 38.9711C21.666 38.9892 21.9367 38.9892 22.2436 38.9892ZM26.4674 38.9892C26.9548 38.9531 27.5144 39.0975 27.9115 38.7004C28.0559 38.5199 28.1822 38.3394 28.3627 38.0866C28.3627 36.2816 28.3627 34.3863 28.3627 32.491C29.6804 32.491 30.9801 32.4368 32.2617 32.509C33.0378 32.5451 33.6696 32.3105 34.2833 31.9314C34.5721 31.7509 34.8248 31.4801 35.0775 31.2274C35.7454 30.5776 36.0703 29.7834 36.0884 28.8448C36.0884 27.3646 36.0884 25.9025 36.0884 24.4224C36.0884 24.2058 36.0342 23.9711 35.9801 23.7545C35.7815 22.9783 35.3663 22.4007 34.8068 21.8953C34.157 21.2996 33.3988 20.9386 32.4963 20.9386C30.4746 20.9386 28.471 20.9386 26.4313 20.9386C26.2328 21.1552 26.0342 21.3718 25.7996 21.5884C25.7996 27.148 25.7996 32.7437 25.7996 38.3574C26.0342 38.556 26.2508 38.7726 26.4674 38.9892ZM39.4638 38.9892C40.7093 38.9892 41.9728 38.9892 43.2183 38.9892C43.4349 38.7726 43.6515 38.556 43.8681 38.3574C43.8681 38.0144 43.8681 37.6895 43.8681 37.3466C43.8681 37.3105 43.8681 37.2924 43.8681 37.2744C43.5974 36.769 43.1822 36.4621 42.6407 36.4079C42.6407 32.0939 42.6407 27.7978 42.6407 23.5921C43.0378 23.3935 43.3808 23.213 43.7779 22.9964C43.8321 22.5271 43.8681 22.0397 43.9043 21.6968C43.6154 21.3718 43.4169 21.1372 43.2544 20.9567C41.9548 20.9567 40.6913 20.9567 39.5721 20.9567C39.2653 21.2274 39.0487 21.426 38.7779 21.6787C38.832 22.1119 38.9042 22.5993 38.9584 23.0144C39.3916 23.231 39.7346 23.4116 40.0414 23.574C40.0414 27.87 40.0414 32.1661 40.0414 36.426C39.8609 36.4621 39.6624 36.426 39.5902 36.5162C39.3375 36.769 38.9043 36.8412 38.814 37.2563C38.814 37.6173 38.814 37.9783 38.814 38.3394C39.0306 38.556 39.2472 38.7726 39.4638 38.9892Z" fill="white"/>
<path d="M19.0486 32.4549C17.9836 32.491 16.8644 32.509 15.7453 32.5451C15.7092 32.5451 15.6551 32.6173 15.5468 32.7076C15.5648 31.5885 16.1966 30.6859 16.2688 29.6571C16.8103 28.7545 16.8644 27.6895 17.2255 26.6787C17.3338 26.787 17.4962 26.8953 17.4962 26.9856C17.5143 27.7617 17.9655 28.4296 18.1099 29.1697C18.2182 29.6751 18.507 30.1625 18.5792 30.6679C18.6514 31.3177 19.0847 31.8051 19.0486 32.4549Z" fill="white"/>
<path d="M33.5795 28.9534C33.4532 29.1519 33.3449 29.3505 33.2005 29.531C32.9478 29.8198 32.6229 29.9823 32.2077 29.9642C30.9442 29.9462 29.6806 29.9642 28.381 29.9642C28.381 27.8162 28.381 25.6682 28.381 23.466C29.6987 23.466 31.0525 23.448 32.3882 23.466C33.02 23.4841 33.5615 24.1339 33.5795 24.8198C33.5795 25.957 33.5795 27.0942 33.5795 28.2314C33.5795 28.4841 33.5795 28.7187 33.5795 28.9534Z" fill="white"/>
</svg>

<svg width="57" height="60" fill="none" xmlns="http://www.w3.org/2000/svg"><path d="M21.07 54.892c-4.043-1.138-7.599-3.231-10.704-6.156-.974.343-1.967.686-2.978 1.011-.47.145-.939.09-1.426-.09-.866-.325-1.39-.957-1.769-1.733-.523-1.029-1.191-1.967-1.715-2.996-.47-.957-1.155-1.787-1.552-2.78-.199-.487-.722-.812-.722-1.426-.47-.758-.018-1.426.253-2.094.072-.18.162-.415.325-.487.65-.289.974-.939 1.516-1.336.252-.18.523-.379.812-.596-.415-2.075-.776-4.151-.776-6.281 0-2.112.379-4.152.776-6.174-.704-.65-1.354-1.281-2.04-1.877-.704-.613-1.119-1.372-1.029-2.166.055-.433.18-.902.398-1.263.667-1.065 1.281-2.184 1.93-3.268.524-.866.976-1.768 1.553-2.617.307-.433.488-.939.795-1.39.595-.848 1.787-1.263 2.761-.974.867.252 1.679.631 2.563.794.09.018.163.144.253.234 3.123-2.906 6.679-4.982 10.758-6.19.163-.488.199-1.012.397-1.517.145-.38.109-.849.18-1.264.2-1.083.867-1.714 1.824-2.04.343-.108.686-.216 1.101-.216 2.527.036 5.054.036 7.581 0 .722 0 1.336.289 1.914.614.523.27.812.848.956 1.39.253.992.397 2.003.596 3.05 4.061 1.155 7.617 3.231 10.722 6.155.975-.343 1.968-.685 2.978-1.01.47-.145.939-.09 1.426.09.867.325 1.39.957 1.77 1.733.523 1.028 1.19 1.967 1.714 2.996.47.957 1.155 1.787 1.553 2.78.198.487.721.812.721 1.426.47.758.019 1.426-.252 2.094-.072.18-.163.415-.325.487-.65.289-.975.939-1.516 1.336-.253.18-.524.379-.813.596.416 2.075.776 4.151.776 6.281 0 2.112-.324 4.152-.776 6.173.704.65 1.354 1.282 2.04 1.878.704.613 1.12 1.371 1.029 2.166-.054.433-.163.902-.397 1.263-.65 1.047-1.264 2.13-1.895 3.195-.795 1.318-1.445 2.744-2.365 3.99-.163.685-.812.74-1.282.992-.505.27-1.01.199-1.57.036-.83-.234-1.625-.65-2.491-.758-.09-.018-.163-.144-.253-.235-3.123 2.943-6.66 5.036-10.794 6.21-.199.975-.38 1.985-.596 2.978-.216.975-.866 1.589-1.787 1.877-.343.109-.704.217-1.1.217a265.363 265.363 0 0 0-7.582 0c-.722 0-1.336-.289-1.913-.614-.524-.27-.83-.848-.939-1.39a156.992 156.992 0 0 0-.614-3.104Zm1.174-15.903c.36-.198.776-.325.794-.758.036-.65.126-1.318-.018-1.931-.253-1.047-.704-2.058-.975-3.105-.18-.668-.578-1.3-.56-2.022-.577-1.426-.938-2.924-1.425-4.368-.398-1.191-.686-2.419-1.12-3.592-.234-.65-.289-1.372-.722-1.95a.926.926 0 0 1-.054-.09c-.487-.325-.993-.216-1.426-.216-.253.234-.47.433-.668.613-.018.578-.433 1.03-.36 1.589-.633 1.408-.903 2.924-1.427 4.368-.27.74-.433 1.498-.65 2.256-.198.758-.631 1.444-.631 2.257-.686 1.534-1.03 3.177-1.535 4.783-.126.397-.198.776.055 1.155.072.109.036.271.036.253.289.307.505.523.686.74h1.083c.252-.325.505-.632.74-.938-.054-1.03.162-1.715.631-2.816h5.307c.145.577.217 1.137.416 1.66.09.217.18.433.144.65-.054.668.162 1.191.92 1.444.181.018.452.018.759.018Zm4.223 0c.488-.036 1.047.108 1.445-.289.144-.18.27-.36.45-.613V32.49c1.318 0 2.618-.054 3.9.018.776.036 1.408-.199 2.021-.578.29-.18.542-.45.794-.704.668-.65.993-1.444 1.011-2.382v-4.423c0-.216-.054-.45-.108-.668-.198-.776-.614-1.353-1.173-1.859-.65-.595-1.408-.956-2.31-.956H26.43c-.198.216-.397.433-.631.65v16.768c.234.199.45.416.667.632Zm12.997 0h3.754c.217-.216.433-.433.65-.632v-1.083c-.27-.505-.686-.812-1.227-.866V23.592c.397-.198.74-.379 1.137-.596.054-.469.09-.956.126-1.3-.289-.324-.487-.559-.65-.74h-3.682c-.307.271-.523.47-.794.723.054.433.126.92.18 1.335.434.217.777.398 1.083.56v12.852c-.18.036-.379 0-.45.09-.254.253-.687.325-.777.74v1.083l.65.65Z" fill="#fff"/><path d="M19.049 32.455c-1.065.036-2.185.054-3.304.09-.036 0-.09.072-.198.163.018-1.12.65-2.022.722-3.05.541-.904.595-1.969.957-2.98.108.109.27.217.27.308.018.776.47 1.444.614 2.184.108.505.397.992.47 1.498.071.65.505 1.137.469 1.787ZM33.58 28.953c-.127.199-.235.398-.38.578a1.194 1.194 0 0 1-.992.433c-1.264-.018-2.527 0-3.827 0v-6.498c1.318 0 2.671-.018 4.007 0 .632.018 1.174.668 1.192 1.354v4.133Z" fill="#fff"/></svg>
